X: 0
T: Hark! What Mean Those Holy Voices?
L: 1/4
M: 3/4
Q: 1/4=130
K: F
[V: P1]  (c A) f | e2 d | (c G) B | B2 A | (G A) =B | (c d) e | A2 =B | c3 | A2 c | f2 d | (c A) F | E D2 | F2 B | (A d) c | (B A) G | F3|]

